src/4-icons/button.svg

<svg width="260" height="260" viewBox="0 0 260 260" fill="none" xmlns="http://www.w3.org/2000/svg">
<g opacity="0.9">
<path d="M47.45 153.295C47.97 153.764 48.5946 154.05 49.2964 154.05H153.296L154.935 164.45H49.2964C42.12 164.423 36.3228 158.625 36.2964 151.45V74.4116C36.3218 67.2352 42.12 61.438 49.2964 61.4116H188.656C195.833 61.437 201.631 67.2352 201.656 74.4116V126.125L191.256 119.002V74.4116C191.256 73.6844 190.996 73.0608 190.502 72.5662C189.982 72.097 189.358 71.8116 188.656 71.8116H49.2964C48.5682 71.8116 47.9436 72.0716 47.45 72.5662C46.9828 73.0598 46.6964 73.6834 46.6964 74.4116V151.45C46.6964 152.177 46.9564 152.801 47.45 153.295Z" fill="black"/>
<path fill-rule="evenodd" clip-rule="evenodd" d="M169.78 113.464L225.992 152.255V152.254C228.721 154.126 230.334 157.169 230.256 160.341C230.177 163.513 228.487 166.424 225.679 168.193L214.057 175.499L221.364 187.121C222.819 189.487 223.313 192.269 222.689 194.973C222.066 197.676 220.427 199.991 218.087 201.473L214.317 203.838C212.654 204.878 210.729 205.423 208.779 205.423C205.165 205.423 201.888 203.603 199.965 200.562L192.658 188.94L181.036 196.246C179.425 197.235 177.605 197.781 175.785 197.781C171.183 197.781 167.309 194.374 166.555 189.669L155.895 122.199C155.453 119.339 156.155 116.661 157.871 114.659C159.484 112.787 161.849 111.695 164.346 111.695C166.218 111.695 168.09 112.294 169.78 113.464ZM205.505 171.626L221.52 161.538L221.523 161.539C222.719 160.785 222.745 159.485 221.575 158.679L165.363 119.861C164.972 119.601 164.634 119.471 164.349 119.471C163.777 119.471 163.464 119.991 163.621 120.953L174.281 188.423C174.411 189.412 175.034 189.958 175.789 189.958C176.126 189.958 176.517 189.854 176.881 189.619L192.896 179.531C193.312 179.271 193.806 179.141 194.274 179.141C195.132 179.141 195.99 179.583 196.484 180.363L206.572 196.378C207.066 197.158 207.924 197.6 208.782 197.6C209.276 197.6 209.744 197.469 210.212 197.184L213.982 194.818C215.178 194.065 215.542 192.452 214.788 191.23L204.7 175.215C203.92 173.992 204.283 172.381 205.505 171.626Z" fill="black"/>
</g>
</svg>

<svg width="260" height="260" fill="none" xmlns="http://www.w3.org/2000/svg"><g opacity=".9" fill="#000"><path d="M47.45 153.295c.52.469 1.145.755 1.846.755h104l1.639 10.4H49.296c-7.176-.027-12.973-5.825-13-13V74.412c.026-7.177 5.824-12.974 13-13h139.36a13.036 13.036 0 0 1 13 13v51.713l-10.4-7.123v-44.59c0-.728-.26-1.351-.754-1.846-.52-.469-1.144-.754-1.846-.754H49.296a2.53 2.53 0 0 0-1.846.754c-.467.494-.754 1.117-.754 1.846v77.038c0 .727.26 1.351.754 1.845Z"/><path fill-rule="evenodd" clip-rule="evenodd" d="m169.78 113.464 56.212 38.791v-.001c2.729 1.872 4.342 4.915 4.264 8.087-.079 3.172-1.769 6.083-4.577 7.852l-11.622 7.306 7.307 11.622c1.455 2.366 1.949 5.148 1.325 7.852a10.43 10.43 0 0 1-4.602 6.5l-3.77 2.365a10.455 10.455 0 0 1-5.538 1.585c-3.614 0-6.891-1.82-8.814-4.861l-7.307-11.622-11.622 7.306c-1.611.989-3.431 1.535-5.251 1.535-4.602 0-8.476-3.407-9.23-8.112l-10.66-67.47c-.442-2.86.26-5.538 1.976-7.54a8.554 8.554 0 0 1 6.475-2.964c1.872 0 3.744.599 5.434 1.769Zm35.725 58.162 16.015-10.088.003.001c1.196-.754 1.222-2.054.052-2.86l-56.212-38.818c-.391-.26-.729-.39-1.014-.39-.572 0-.885.52-.728 1.482l10.66 67.47c.13.989.753 1.535 1.508 1.535.337 0 .728-.104 1.092-.339l16.015-10.088c.416-.26.91-.39 1.378-.39.858 0 1.716.442 2.21 1.222l10.088 16.015a2.636 2.636 0 0 0 2.21 1.222c.494 0 .962-.131 1.43-.416l3.77-2.366c1.196-.753 1.56-2.366.806-3.588L204.7 175.215a2.579 2.579 0 0 1 .805-3.589Z"/></g></svg>
